X: 26683
T: Mighty Hills Of Ennis, The
R: slide
M: 12/8
K: Gmajor
|g2b a2f g2e edB|deg edB deg age|
gab agf ~g3 edB|~d3 edB ABc def|
g2b a2f g2e edB|deg edB deg aga|
b3 a3 ~g3 edB|~d3 edB ~A3 G3||

